dist/svg/container.svg

<!-- Generated by Trend Micro Style Portal -->
<svg version="1.1" xmlns="http://www.w3.org/2000/svg" width="16" height="16" viewBox="0 0 16 16">
  <title>container</title>
  <path fill="rgb(34,34,34)" d="M3 2.4l2-0.4 11 2v9l-11 1-2-0.4v-11.2zM6 13h1v-9.3h-1v9.3zM8 12.6h1v-8.6h-1v8.6zM10 12.4h1v-8l-1-0.2v8.2zM12 12.2h1v-7.5l-1-0.2v7.7zM14 12h1v-7l-1-0.2v7.2zM0 3l2-0.4v10.8l-2-0.4v-10z"></path>
</svg>

<svg width="16" height="16" viewBox="0 0 16 16" fill="rgb(34, 34, 34)" xmlns="http://www.w3.org/2000/svg"><title>container</title><path d="M3 2.4L5 2L16 4V13L5 14L3 13.6V2.4ZM6 13H7V3.7H6V13ZM8 12.6H9V4H8V12.6ZM10 12.4H11V4.4L10 4.2V12.4ZM12 12.2H13V4.7L12 4.5V12.2ZM14 12H15V5L14 4.8V12ZM0 3L2 2.6V13.4L0 13V3Z" fill="rgb(34, 34, 34)" fill-opacity="1.00"/></svg>
